X: 23688
T: Líontar Dúinn An Crúiscín
R: waltz
M: 3/4
K: Dmajor
A|:de dB A2|AA ee eg|f2 d3A|
dd fa bb|af df ed|B2 A3e|
fe fa bb|af df ed|B2 A3A|
ee ee ef|fe dc df|a2 f3e|
de dB AB|de f2 d2|d5 A:|

